logo/apptentive.svg

<?xml version="1.0" encoding="UTF-8"?>
<svg width="512px" height="90px" viewBox="0 0 512 90" version="1.1" xmlns="http://www.w3.org/2000/svg" preserveAspectRatio="xMidYMid">
    <title>Apptentive</title>
    <g>
        <g transform="translate(71.897749, 1.854336)" fill="#3D3D3D">
            <path d="M45.815911,66.2983183 L41.5038253,51.4755235 L18.8653751,51.4755235 L14.283784,66.2983183 L1.91495075e-14,66.2983183 L22.0994394,3.77307502 L38.269761,3.77307502 L60.3692004,66.2983183 L45.815911,66.2983183 Z M38.269761,40.4258038 C33.9576752,26.9505359 31.8016323,19.4043858 31.2626216,17.5178483 C30.7236109,15.6313108 30.4541056,14.283784 30.1846002,13.2057626 C29.3760841,16.9788376 26.6810305,25.8725144 22.0994394,40.1562985 L38.269761,40.1562985 L38.269761,40.4258038 Z"></path>
            <path d="M88.9367684,67.3763397 C83.2771559,67.3763397 78.9650701,65.2202968 75.7310058,61.1777165 L74.9224898,61.1777165 C75.4615005,65.2202968 75.7310058,67.3763397 75.7310058,68.1848558 L75.7310058,87.5892416 L62.7947486,87.5892416 L62.7947486,18.5958698 L73.3054576,18.5958698 L75.1919951,24.794493 L75.7310058,24.794493 C78.6955648,19.9433966 83.2771559,17.7873537 89.2062738,17.7873537 C94.8658863,17.7873537 99.1779721,19.9433966 102.412036,24.2554823 C105.646101,28.567568 107.263133,34.7661913 107.263133,42.3123413 C107.263133,47.4329432 106.454617,51.7450289 105.10709,55.5181039 C103.490058,59.2911789 101.60352,62.2557379 98.6389613,64.1422754 C95.6744024,66.2983183 92.4403381,67.3763397 88.9367684,67.3763397 Z M84.894188,28.2980627 C81.6601237,28.2980627 79.2345755,29.3760841 77.8870487,31.2626216 C76.5395219,33.1491591 75.7310058,36.3832234 75.4615005,40.9648145 L75.4615005,42.3123413 C75.4615005,47.4329432 76.2700166,51.2060182 77.6175433,53.3620611 C79.2345755,55.5181039 81.6601237,56.5961254 84.894188,56.5961254 C90.8233059,56.5961254 93.5183595,51.7450289 93.5183595,42.3123413 C93.5183595,37.7307502 92.7098434,34.2271806 91.3623167,31.8016323 C90.2842952,29.3760841 88.1282523,28.2980627 84.894188,28.2980627 Z"></path>
            <path d="M139.603776,67.3763397 C133.944163,67.3763397 129.632078,65.2202968 126.398013,61.1777165 L125.589497,61.1777165 C126.128508,65.2202968 126.398013,67.3763397 126.398013,68.1848558 L126.398013,87.5892416 L113.461756,87.5892416 L113.461756,18.5958698 L123.972465,18.5958698 L125.859003,24.794493 L126.398013,24.794493 C129.362572,19.9433966 133.944163,17.7873537 139.873281,17.7873537 C145.532894,17.7873537 149.84498,19.9433966 153.079044,24.2554823 C156.313108,28.567568 157.93014,34.7661913 157.93014,42.3123413 C157.93014,47.4329432 157.121624,51.7450289 155.774097,55.5181039 C154.157065,59.2911789 152.270528,62.2557379 149.305969,64.1422754 C146.610915,66.2983183 143.376851,67.3763397 139.603776,67.3763397 Z M135.830701,28.2980627 C132.596637,28.2980627 130.171088,29.3760841 128.823562,31.2626216 C127.476035,33.1491591 126.667519,36.3832234 126.398013,40.9648145 L126.398013,42.3123413 C126.398013,47.4329432 127.206529,51.2060182 128.554056,53.3620611 C130.171088,55.5181039 132.596637,56.5961254 135.830701,56.5961254 C141.759819,56.5961254 144.454872,51.7450289 144.454872,42.3123413 C144.454872,37.7307502 143.646356,34.2271806 142.298829,31.8016323 C141.220808,29.3760841 139.064765,28.2980627 135.830701,28.2980627 Z"></path>
            <path d="M184.611171,56.8656307 C186.767214,56.8656307 189.731773,56.32662 192.696332,55.2485986 L192.696332,64.9507915 C189.462267,66.2983183 185.419687,67.1068344 180.838096,67.1068344 C175.717494,67.1068344 171.944419,65.7593076 169.518871,63.064254 C167.093322,60.3692004 166.015301,56.5961254 166.015301,51.2060182 L166.015301,28.2980627 L159.816678,28.2980627 L159.816678,22.9079555 L167.093322,18.5958698 L170.866398,8.62417148 L178.951558,8.62417148 L178.951558,18.8653751 L192.426826,18.8653751 L192.426826,28.567568 L178.951558,28.567568 L178.951558,51.4755235 C178.951558,53.3620611 179.490569,54.7095878 180.56859,55.5181039 C181.377107,56.32662 182.724633,56.8656307 184.611171,56.8656307 Z"></path>
            <path d="M219.646867,67.3763397 C212.100717,67.3763397 205.902094,65.2202968 201.590008,60.9082111 C197.277923,56.5961254 195.12188,50.6670075 195.12188,42.8513521 C195.12188,34.7661913 197.008417,28.567568 201.050998,24.2554823 C205.093578,19.9433966 210.483685,17.7873537 217.490825,17.7873537 C224.228459,17.7873537 229.34906,19.6738912 233.122135,23.4469662 C236.89521,27.2200412 238.781748,32.6101484 238.781748,39.3477824 L238.781748,45.5464056 L208.058137,45.5464056 C208.327642,49.3194807 209.405664,52.0145343 211.292201,54.1705771 C213.448244,56.32662 216.143298,57.4046414 219.916373,57.4046414 C222.880932,57.4046414 225.575985,57.1351361 228.001534,56.5961254 C230.427082,56.0571146 233.122135,54.9790932 236.086694,53.6315664 L236.086694,63.6032647 C233.930651,64.6812861 231.505103,65.4898022 228.81005,66.0288129 C226.384501,66.837329 223.150437,67.3763397 219.646867,67.3763397 Z M217.76033,26.9505359 C215.065276,26.9505359 212.909233,27.759052 211.292201,29.6455895 C209.675169,31.2626216 208.866653,33.9576752 208.597148,37.1917395 L226.923512,37.1917395 C226.923512,33.9576752 226.114996,31.532127 224.497964,29.6455895 C222.611426,28.0285573 220.455384,26.9505359 217.76033,26.9505359 Z"></path>
            <path d="M289.17925,66.2983183 L276.242993,66.2983183 L276.242993,38.5392663 C276.242993,35.0356967 275.703982,32.6101484 274.356455,30.7236109 C273.008929,29.1065788 271.122391,28.0285573 268.427337,28.0285573 C264.654262,28.0285573 262.228714,29.3760841 260.611682,31.8016323 C258.99465,34.2271806 258.186134,38.269761 258.186134,43.9293735 L258.186134,66.2983183 L245.249877,66.2983183 L245.249877,18.5958698 L255.221575,18.5958698 L256.838607,24.794493 L257.647123,24.794493 C258.99465,22.3689448 261.150693,20.7519126 263.576241,19.6738912 C266.001789,18.5958698 268.966348,17.7873537 272.200412,17.7873537 C277.860025,17.7873537 281.902605,19.4043858 284.867164,22.3689448 C287.831723,25.3335037 289.17925,29.6455895 289.17925,35.305202 L289.17925,66.2983183 L289.17925,66.2983183 Z"></path>
            <path d="M318.285829,56.8656307 C320.441872,56.8656307 323.406431,56.32662 326.37099,55.2485986 L326.37099,64.9507915 C323.136925,66.2983183 319.094345,67.1068344 314.512754,67.1068344 C309.392152,67.1068344 305.619077,65.7593076 303.193529,63.064254 C300.76798,60.3692004 299.689959,56.5961254 299.689959,51.2060182 L299.689959,28.2980627 L293.491336,28.2980627 L293.491336,22.9079555 L300.76798,18.5958698 L304.541056,8.62417148 L312.895722,8.62417148 L312.895722,18.8653751 L326.37099,18.8653751 L326.37099,28.567568 L312.895722,28.567568 L312.895722,51.4755235 C312.895722,53.3620611 313.434732,54.7095878 314.512754,55.5181039 C315.32127,56.32662 316.668797,56.8656307 318.285829,56.8656307 Z"></path>
            <path d="M331.222086,6.46812861 C331.222086,2.15604287 333.647634,2.39368844e-15 338.229225,2.39368844e-15 C343.080322,2.39368844e-15 345.236365,2.15604287 345.236365,6.46812861 C345.236365,8.35466612 344.697354,9.97169828 343.349827,11.0497197 C342.271806,12.1277411 340.385268,12.6667519 337.95972,12.6667519 C333.647634,12.6667519 331.222086,10.7802144 331.222086,6.46812861 Z M344.697354,66.2983183 L331.761097,66.2983183 L331.761097,18.5958698 L344.697354,18.5958698 L344.697354,66.2983183 Z"></path>
            <path d="M365.449267,66.2983183 L347.392408,18.5958698 L360.867675,18.5958698 L370.030858,45.815911 C371.108879,49.3194807 371.64789,52.553545 371.917395,55.5181039 L372.186901,55.5181039 C372.456406,52.8230503 372.995417,49.588986 374.073438,45.815911 L383.23662,18.5958698 L396.711888,18.5958698 L378.655029,66.2983183 L365.449267,66.2983183 L365.449267,66.2983183 Z"></path>
            <path d="M420.967371,67.3763397 C413.42122,67.3763397 407.222597,65.2202968 402.910511,60.9082111 C398.598426,56.5961254 396.442383,50.6670075 396.442383,42.8513521 C396.442383,34.7661913 398.32892,28.567568 402.371501,24.2554823 C406.414081,19.9433966 411.804188,17.7873537 418.811328,17.7873537 C425.548962,17.7873537 430.669563,19.6738912 434.442638,23.4469662 C438.215713,27.2200412 440.102251,32.6101484 440.102251,39.3477824 L440.102251,45.5464056 L409.37864,45.5464056 C409.648145,49.3194807 410.726167,52.0145343 412.612704,54.1705771 C414.768747,56.32662 417.463801,57.4046414 421.236876,57.4046414 C424.201435,57.4046414 426.896488,57.1351361 429.322037,56.5961254 C431.747585,56.0571146 434.442638,54.9790932 437.407197,53.6315664 L437.407197,63.6032647 C435.251155,64.6812861 432.825606,65.4898022 430.130553,66.0288129 C427.705004,66.837329 424.740446,67.3763397 420.967371,67.3763397 Z M419.080833,26.9505359 C416.385779,26.9505359 414.229737,27.759052 412.612704,29.6455895 C410.995672,31.2626216 410.187156,33.9576752 409.917651,37.1917395 L428.244015,37.1917395 C428.244015,33.9576752 427.435499,31.532127 425.818467,29.6455895 C423.931929,28.0285573 421.775887,26.9505359 419.080833,26.9505359 Z"></path>
        </g>
        <path d="M61.9260507,14.5210883 C63.8125882,18.8331741 64.0820936,23.1452598 63.0040722,27.1878402 L48.4507828,67.613644 L9.91151646,53.32986 C6.13844144,51.7128278 3.44338785,48.7482689 1.55685034,44.7056885 C-0.329687173,40.3936028 -0.599192532,35.8120117 1.28734498,30.6914098 C3.17388249,25.8403134 6.13844144,22.3367437 10.4505272,20.1807008 C14.4931076,18.024658 18.8051933,17.4856473 23.117279,18.5636687 C36.8620523,22.3367437 42.5216649,29.343883 39.5571059,39.046076 C34.9755148,32.5779474 29.5854077,28.8048723 23.3867844,27.4573455 C17.7271719,25.8403134 13.6845915,27.7268509 11.5285486,33.6559688 C9.6420111,39.3155813 10.7200325,43.3581617 15.0321183,45.2446992 L42.5216649,55.4859029 L53.5713846,24.7622919 C54.3799007,22.0672384 53.84089,19.6416901 52.4933632,16.9466365 C50.876331,13.9820776 48.4507828,12.0955401 45.4862238,11.0175186 C41.9826542,9.66999185 38.7485899,9.66999185 35.7840309,11.0175186 C33.0889773,12.0955401 31.4719452,13.7125722 30.9329345,15.5991097 L21.5002469,12.3650454 C23.3867844,7.51394898 27.1598594,4.01037931 32.5499666,1.85433644 C37.6705684,-0.571211787 43.0606756,-0.571211787 48.7202881,1.58483108 C53.84089,3.4713686 57.8834703,7.24444362 61.1175346,12.9040562 C61.1175346,13.1735615 61.6565454,13.7125722 61.9260507,14.5210883 Z" fill="#EF4650"></path>
    </g>
</svg>

<svg viewBox="0 0 512 90" xmlns="http://www.w3.org/2000/svg"><g transform="translate(71.8978 1.85434)"><g fill="#3D3D3D"><path d="M45.81 66.29l-4.32-14.83H18.85l-4.59 14.82H-.03L22.06 3.75h16.17l22.09 62.52H45.76Zm-7.55-25.88c-4.32-13.48-6.47-21.03-7.01-22.91 -.54-1.89-.81-3.24-1.08-4.32 -.81 3.77-3.51 12.66-8.09 26.95h16.17v.26Z"/><path d="M88.93 67.37c-5.66 0-9.98-2.16-13.21-6.2h-.81c.53 4.04.8 6.19.8 7v19.4H62.77v-69h10.51l1.88 6.19h.53c2.96-4.86 7.54-7.01 13.47-7.01 5.65 0 9.97 2.15 13.2 6.46 3.23 4.31 4.85 10.51 4.85 18.05 0 5.12-.81 9.43-2.16 13.2 -1.62 3.77-3.51 6.73-6.47 8.62 -2.97 2.15-6.2 3.23-9.71 3.23Zm-4.05-39.08c-3.24 0-5.66 1.07-7.01 2.96 -1.35 1.88-2.16 5.12-2.43 9.7v1.34c0 5.12.8 8.89 2.15 11.04 1.61 2.15 4.04 3.23 7.27 3.23 5.92 0 8.62-4.86 8.62-14.29 0-4.59-.81-8.09-2.16-10.52 -1.08-2.43-3.24-3.51-6.47-3.51Z"/><path d="M139.6 67.37c-5.66 0-9.98-2.16-13.21-6.2h-.81c.53 4.04.8 6.19.8 7v19.4h-12.94v-69h10.51l1.88 6.19h.53c2.96-4.86 7.54-7.01 13.47-7.01 5.65 0 9.97 2.15 13.2 6.46 3.23 4.31 4.85 10.51 4.85 18.05 0 5.12-.81 9.43-2.16 13.2 -1.62 3.77-3.51 6.73-6.47 8.62 -2.7 2.15-5.93 3.23-9.71 3.23Zm-3.78-39.08c-3.24 0-5.66 1.07-7.01 2.96 -1.35 1.88-2.16 5.12-2.43 9.7v1.34c0 5.12.8 8.89 2.15 11.04 1.61 2.15 4.04 3.23 7.27 3.23 5.92 0 8.62-4.86 8.62-14.29 0-4.59-.81-8.09-2.16-10.52 -1.08-2.43-3.24-3.51-6.47-3.51Z"/><path d="M184.61 56.86c2.15 0 5.12-.54 8.08-1.62v9.7c-3.24 1.34-7.28 2.15-11.86 2.15 -5.13 0-8.9-1.35-11.32-4.05 -2.43-2.7-3.51-6.47-3.51-11.86V28.27h-6.2v-5.4l7.27-4.32 3.77-9.98h8.08v10.24h13.47v9.7h-13.48v22.9c0 1.88.53 3.23 1.61 4.04 .8.8 2.15 1.34 4.04 1.34Z"/><path d="M219.64 67.37c-7.55 0-13.75-2.16-18.06-6.47 -4.32-4.32-6.47-10.25-6.47-18.06 0-8.09 1.88-14.29 5.92-18.6 4.04-4.32 9.43-6.47 16.43-6.47 6.73 0 11.85 1.88 15.63 5.65 3.77 3.77 5.65 9.16 5.65 15.9v6.19h-30.73c.26 3.77 1.34 6.46 3.23 8.62 2.15 2.15 4.85 3.23 8.62 3.23 2.96 0 5.65-.27 8.08-.81 2.42-.54 5.12-1.62 8.08-2.97v9.97c-2.16 1.07-4.59 1.88-7.28 2.42 -2.43.8-5.66 1.34-9.17 1.34Zm-1.89-40.43c-2.7-.001-4.86.8-6.47 2.69 -1.62 1.61-2.43 4.31-2.7 7.54h18.32c0-3.24-.81-5.66-2.43-7.55 -1.89-1.62-4.05-2.7-6.74-2.7Z"/><path d="M289.17 66.29h-12.94V38.53c0-3.51-.54-5.93-1.89-7.82 -1.35-1.62-3.24-2.7-5.93-2.7 -3.78 0-6.2 1.34-7.82 3.77 -1.62 2.42-2.43 6.46-2.43 12.12v22.36h-12.94V18.55h9.97l1.61 6.19h.8c1.34-2.43 3.5-4.05 5.92-5.13s5.39-1.89 8.62-1.89c5.65 0 9.7 1.61 12.66 4.58 2.96 2.96 4.31 7.27 4.31 12.93v30.99 0Z"/><path d="M318.28 56.86c2.15 0 5.12-.54 8.08-1.62v9.7c-3.24 1.34-7.28 2.15-11.86 2.15 -5.13 0-8.9-1.35-11.32-4.05 -2.43-2.7-3.51-6.47-3.51-11.86V28.27h-6.2v-5.4l7.27-4.32 3.77-9.98h8.35v10.24h13.47v9.7h-13.48v22.9c0 1.88.53 3.23 1.61 4.04 .8.8 2.15 1.34 3.77 1.34Z"/><path d="M331.22 6.46c0-4.32 2.42-6.47 7-6.47 4.85 0 7 2.15 7 6.46 0 1.88-.54 3.5-1.89 4.58 -1.08 1.07-2.97 1.61-5.4 1.61 -4.32 0-6.74-1.89-6.74-6.2Zm13.47 59.83h-12.94V18.58h12.93v47.7Z"/><path d="M365.44 66.29l-18.06-47.71h13.47l9.16 27.22c1.07 3.5 1.61 6.73 1.88 9.7h.26c.26-2.7.8-5.93 1.88-9.71l9.16-27.23h13.47l-18.06 47.7h-13.21v0Z"/><path d="M420.96 67.37c-7.55 0-13.75-2.16-18.06-6.47 -4.32-4.32-6.47-10.25-6.47-18.06 0-8.09 1.88-14.29 5.92-18.6 4.04-4.32 9.43-6.47 16.43-6.47 6.73 0 11.85 1.88 15.63 5.65 3.77 3.77 5.65 9.16 5.65 15.9v6.19h-30.73c.26 3.77 1.34 6.46 3.23 8.62 2.15 2.15 4.85 3.23 8.62 3.23 2.96 0 5.65-.27 8.08-.81 2.42-.54 5.12-1.62 8.08-2.97v9.97c-2.16 1.07-4.59 1.88-7.28 2.42 -2.43.8-5.4 1.34-9.17 1.34Zm-1.89-40.43c-2.7-.001-4.86.8-6.47 2.69 -1.62 1.61-2.43 4.31-2.7 7.54h18.32c0-3.24-.81-5.66-2.43-7.55 -1.89-1.62-4.05-2.7-6.74-2.7Z"/></g></g><path fill="#EF4650" d="M61.92 14.52c1.88 4.31 2.15 8.62 1.07 12.66L48.43 67.6 9.89 53.31c-3.78-1.62-6.47-4.59-8.36-8.63 -1.89-4.32-2.16-8.9-.27-14.02 1.88-4.86 4.85-8.36 9.16-10.52 4.04-2.16 8.35-2.7 12.66-1.62C36.82 22.29 42.48 29.3 39.51 39c-4.59-6.47-9.98-10.25-16.18-11.59 -5.66-1.62-9.71.26-11.86 6.19 -1.89 5.65-.81 9.7 3.5 11.58l27.48 10.24 11.04-30.73c.8-2.7.26-5.13-1.08-7.82 -1.62-2.97-4.05-4.86-7.01-5.93 -3.51-1.35-6.74-1.35-9.71 0 -2.7 1.07-4.32 2.69-4.86 4.58l-9.44-3.24c1.88-4.86 5.65-8.36 11.04-10.52C37.55-.67 42.94-.67 48.6 1.49c5.12 1.88 9.16 5.65 12.39 11.31 0 .26.53.8.8 1.61Z"/></svg>
